**kern
*staff1
*tb48
=1-
*clefG2
*k[f#c#]
*M3/8
8d/
.
.
.
.
.
8f#/
.
.
.
.
.
8g#/
.
.
.
.
.
=2
4.a;/
.
.
.
.
.
.
.
.
.
.
.
.
.
.
.
.
.
=3
8a/
.
.
.
.
.
8b\
.
.
.
.
.
8cc#\
.
.
.
.
.
=4
8dd\
.
.
.
.
.
8f#/
.
.
.
.
.
8b\
.
.
.
.
.
=5
8a/
.
.
.
.
.
8b\
.
.
.
.
.
8g/
.
.
.
.
.
=6
!!linebreak:original
4.f#/
.
.
.
.
.
.
.
.
.
.
.
.
.
.
.
.
.
=7
8f#/
.
.
.
.
.
8e/
.
.
.
.
.
8d/
.
.
.
.
.
=8
8.b\
.
.
.
.
.
.
.
.
16ccn\
.
.
8b\
.
.
.
.
.
=9
8a/
.
.
.
.
.
8g/
.
.
.
.
.
8f#/
.
.
.
.
.
=10
!!linebreak:original
4.g/
.
.
.
.
.
.
.
.
.
.
.
.
.
.
.
.
.
=11
8b\
.
.
.
.
.
8ccn\
.
.
.
.
.
8b\
.
.
.
.
.
=12
24a/LL
.
24f#/JJ
.
24g/
.
4e/
.
.
.
.
.
.
.
.
.
.
.
=13
8a/
.
.
.
.
.
8b\
.
.
.
.
.
8a/
.
.
.
.
.
=14
!!linebreak:original
24g/LL
.
24e/JJ
.
24f#/
.
4d/
.
.
.
.
.
.
.
.
.
.
.
=15
8a/
.
.
.
.
.
8b\
.
.
.
.
.
8cc#\
.
.
.
.
.
=16
8dd\
.
.
.
.
.
16b/LL
.
.
16g/JJ
.
.
8f#/
.
.
.
.
.
=17
!!linebreak:original
8f#/
.
.
.
.
.
8g/
.
.
.
.
.
8a/
.
.
.
.
.
=18
8.b\
.
.
.
.
.
.
.
.
16cc#\
.
.
8dd;\
.
.
.
.
.
=19
8f#/
.
.
.
.
.
8g/
.
.
.
.
.
8e/
.
.
.
.
.
=20
4d/
.
.
.
.
.
.
.
.
.
.
.
8a#/
.
.
.
.
.
=21
!!linebreak:original
4f#/
.
.
.
.
.
.
.
.
.
.
.
8a/
.
.
.
.
.
=22
4dd\
.
.
.
.
.
.
.
.
.
.
.
8r
.
.
.
.
.
=23
8f#/
.
.
.
.
.
8g/
.
.
.
.
.
8e/
.
.
.
.
.
=24
4d/
.
.
.
.
.
.
.
.
.
.
.
8r
.
.
.
.
.
=25
!!linebreak:original
8f#/
.
.
.
.
.
8e/
.
.
.
.
.
8d/
.
.
.
.
.
=26
4.a;/
.
.
.
.
.
.
.
.
.
.
.
.
.
.
.
.
.
=27
8a/
.
.
.
.
.
8b\
.
.
.
.
.
8cc#\
.
.
.
.
.
=28
8dd\
.
.
.
.
.
8f#/
.
.
.
.
.
8b\
.
.
.
.
.
=29
8a/
.
.
.
.
.
8b\
.
.
.
.
.
8g/
.
.
.
.
.
=30
!!linebreak:original
4.f#/
.
.
.
.
.
.
.
.
.
.
.
.
.
.
.
.
.
=31
8f#/
.
.
.
.
.
8e/
.
.
.
.
.
8d/
.
.
.
.
.
=32
8.b\
.
.
.
.
.
.
.
.
16ccn\
.
.
8b\
.
.
.
.
.
=33
8a/
.
.
.
.
.
8f#/
.
.
.
.
.
8g/
.
.
.
.
.
=34
!!linebreak:original
4.e/
.
.
.
.
.
.
.
.
.
.
.
.
.
.
.
.
.
=35
8b\
.
.
.
.
.
8ccn\
.
.
.
.
.
8b\
.
.
.
.
.
=36
24b\LL
.
24cc#\JJ
.
24dd#\
.
4ee\
.
.
.
.
.
.
.
.
.
.
.
=37
8a/
.
.
.
.
.
8b\
.
.
.
.
.
8a/
.
.
.
.
.
=38
!!linebreak:original
24g/LL
.
24b/JJ
.
24cc#\
.
4dd\
.
.
.
.
.
.
.
.
.
.
.
=39
8dd\
.
.
.
.
.
8b\
.
.
.
.
.
8g/
.
.
.
.
.
=40
8f#/
.
.
.
.
.
16a/LL
.
.
16g/JJ
.
.
8f#/
.
.
.
.
.
=41
!!linebreak:original
8b\
.
.
.
.
.
8g/
.
.
.
.
.
8e/
.
.
.
.
.
=42
24d/LL
.
24f#/JJ
.
24a/
.
4dd\
.
.
.
.
.
.
.
.
.
.
.
=43
8f#/
.
.
.
.
.
8g/
.
.
.
.
.
8c#/
.
.
.
.
.
=44
4d/
.
.
.
.
.
.
.
.
.
.
.
8r
.
.
.
.
.
==
*-
